X:253
T:Wi how dye do - Adams
%%VWML:SBG-1-2-797-0
F:http://www.vwml.org/record/SBG/1/2/797
Z:Original Sibelius transcriptions by M. & S. Graebe
M:2/4
I:linebreak $
K:G
V:1 treble nm="P1"
V:1
 B, | E3/2 E/ D B, G2 E E | F3/2 E/ ^D3/2 D/ E3 B, | E3/2 E/ D B, G2 E3/2 E/ | %4
 F3/2 E/ ^D D E2 GA |$ B3/2 B/ B G A2 F F | G3/2 E/ (3E63/64^D65/64E65/64 FB, B,2 | %7
 E3/2 E/ D B, G3 E/ EE B | G F3/2 E/ ^D D E2 z | %9
T:Wi how dye do - Wiltshire Wedding - Pills to PM
F:http://www.vwml.org/record/SBG/1/2/797
Z:Original Sibelius transcriptions by M. & S. Graebe
M:4/4
I:linebreak $
K:D
V:1 treble nm="P1"
V:1
 B/c/ | d d d d | d3 c/d/ | e d c d | e3 f/g/ | f d d d |$ d3 d | c A A B | _c3 d/_c/ | B G G A | %10
 B c d _c/B/ | A G F G |$ A3 B/_c/ | B G G A | B _c d _c/B/ | e d c d | d3 x | %17

